X:150
T:Navvie on the Line
M:4/4
L:1/16
K:G
B3c | "G"d3f e3d "D7"(3d2e2d2 (3c2B2A2 | "G"F3A D3G B4 (3B2A2G2 | "D"F3A D3F A4 (3A2G2F2 | "G"G3B D3G B4 B3c | 
"G"d3g f3e "D7"(3d2e2d2 (3c2B2A2 | "G"G3B D3G B4 B3c | "D7"F3G A3B c3d e3f | "G"g4 G4 G4 A3G ||
"D"F3A D3F A4 (3A2G2F2 | "G"G3B D3G B4 (3B2A2G2 | "D"F3A D3F A4 (3A2G2F2 |"G"G3D E3F G3A B3c | 
"G"d3g f3e "D7"(3d2e2d2 (3c2B2A2 | "G"G3B D3G B4 B3c | "D7"F3G A3B c3d e3f | "G"g4 G4 G4 |]

%%newpage

